X:2
T:V\aarvindar friska
R:Alvdals-polska
B:svensk folkmusik 2), Kristina St\aahl Cedervall
O:Gyris Anders
Z:1997 by John Chambers <jc@trillian.mit.edu>
Z:bc/
M:3/4
L:1/8
K:Gm
P: Vaarvindar friska (basic tune):
|: D2 G^F GA | B2 BG AA | d2 dc BA | G2 G/A/G/^F/ D2 - |
|  D2 G^F GA | B2 BG AA | d2 dc BA | G2 G/^F/G/A/ G2 | G6 :|
|: d2 Bd fd | d2 c/d/c/A/ F2 | F6 | B2 GB dB | B2 A/B/A/^F/ D2 | D6 |
|  D2 G^F GA | B2 BG AA | d2 dc BA | G2 G/^F/G/A/ G2 | G6 :|
% %sep 5 5
P: Vaarvindar friska (Alvdalspolska):
D- \
|: D>G- G>^F- G>A | {A}B>{d}B- B>-G A>A | {A}d>d- (dc) B>A | G>G- G/A/G/ ^F/ D2 - |
|  D>G- G>^F- G>A | {A}B>{d}B- B>-G A>A | {A}d>d- (dc) B>A |  G>G- G/^F/ G/A/ G2 | G6 :|
|: {B}~d>(B- ~B>d) ~fd | d>(c- c/d/)c/A/ F2 | F6 | {A}~B>(G- G>B) dB | B>(A- A/B/)A/^F/ D2 | D6 |
|  D>G- G>(^F G)>A | {A}B>(B- B>G) A>A | {A}d>(d- dc) B>A |  G>(G- G/^F/)G/A/ G2 | G6 :|
